Obsidian-SemiLight/actions/22s/labplot-xy-curve.svg

<svg viewBox="0 0 22 22" xmlns="http://www.w3.org/2000/svg"><path d="m4 3v14h-1v1h1v1h1v-1h14v-1h-14v-14zm2.4101562.7128906-.8203124.5742188 5.4726562 7.8164066-4.3105469 2.46289.4960938.867188 4.3906251-2.507813 1.046875 1.496094 6.15625 2.052734.316406-.949218-5.84375-1.947266-.804687-1.150391 1.857422-1.060546 4.066406-7.1191411-.867188-.4960938-3.933594 6.8808589-1.699218.970704z" fill="#4d4d4d"/></svg>

<svg xmlns="http://www.w3.org/2000/svg" viewBox="0 0 22 22">
  <defs id="defs3051">
    <style type="text/css" id="current-color-scheme">
      .ColorScheme-Text {
        color:#4d4d4d;
      }
      </style>
  </defs>
 <path 
     style="fill:currentColor;fill-opacity:1;stroke:none" 
     d="M 4 3 L 4 17 L 3 17 L 3 18 L 4 18 L 4 19 L 5 19 L 5 18 L 19 18 L 19 17 L 5 17 L 5 3 L 4 3 z M 6.4101562 3.7128906 L 5.5898438 4.2871094 L 11.0625 12.103516 L 6.7519531 14.566406 L 7.2480469 15.433594 L 11.638672 12.925781 L 12.685547 14.421875 L 18.841797 16.474609 L 19.158203 15.525391 L 13.314453 13.578125 L 12.509766 12.427734 L 14.367188 11.367188 L 18.433594 4.2480469 L 17.566406 3.7519531 L 13.632812 10.632812 L 11.933594 11.603516 L 6.4101562 3.7128906 z "
     class="ColorScheme-Text"
     />
</svg>
